plasma/desktoptheme/Materia/icons/org.rnd2.cpupower_gui.svg

<svg xmlns="http://www.w3.org/2000/svg" width="32" height="32" version="1">
 <g id="22-22-org.rnd2.cpupower_gui" transform="translate(32,10)">
  <rect style="opacity:0.001" width="22" height="22" x="0" y="0"/>
  <path style="fill:#dfdfdf" d="M 7 3 L 7 5 L 5.8007812 5 C 5.3575812 5 5 5.3575812 5 5.8007812 L 5 7 L 3 7 L 3 9 L 5 9 L 5 10 L 3 10 L 3 12 L 5 12 L 5 13 L 3 13 L 3 15 L 5 15 L 5 16.199219 C 5 16.642419 5.3575812 17 5.8007812 17 L 7 17 L 7 19 L 9 19 L 9 17 L 10 17 L 10 19 L 12 19 L 12 17 L 13 17 L 13 19 L 15 19 L 15 17 L 16.199219 17 C 16.642419 17 17 16.642419 17 16.199219 L 17 15 L 19 15 L 19 13 L 17 13 L 17 12 L 19 12 L 19 10 L 17 10 L 17 9 L 19 9 L 19 7 L 17 7 L 17 5.8007812 C 17 5.3575812 16.642419 5 16.199219 5 L 15 5 L 15 3 L 13 3 L 13 5 L 12 5 L 12 3 L 10 3 L 10 5 L 9 5 L 9 3 L 7 3 z M 12.726562 6 L 11.689453 10 L 13.5 10 L 9.2734375 16 L 10.310547 12 L 8.5 12 L 12.726562 6 z"/>
 </g>
 <g id="org.rnd2.cpupower_gui">
  <rect style="opacity:0.001" width="32" height="32" x="0" y="0"/>
  <g style="fill:#8e8e8e">
   <rect width="1" height="26" x="20" y="-29" transform="rotate(90)"/>
   <rect width="1" height="26" x="23" y="-29" transform="rotate(90)"/>
   <rect width="1" height="26" x="26" y="-29" transform="rotate(90)"/>
   <rect width="1" height="26" x="11" y="-29" transform="rotate(90)"/>
   <rect width="1" height="26" x="14" y="-29" transform="rotate(90)"/>
   <rect width="1" height="26" x="17" y="-29" transform="rotate(90)"/>
   <rect width="1" height="26" x="8" y="-29" transform="rotate(90)"/>
   <rect width="1" height="26" x="5" y="-29" transform="rotate(90)"/>
   <rect width="1" height="26" x="-12" y="-29" transform="scale(-1)"/>
   <rect width="1" height="26" x="-9" y="-29" transform="scale(-1)"/>
   <rect width="1" height="26" x="-6" y="-29" transform="scale(-1)"/>
   <rect width="1" height="26" x="-21" y="-29" transform="scale(-1)"/>
   <rect width="1" height="26" x="-18" y="-29" transform="scale(-1)"/>
   <rect width="1" height="26" x="-15" y="-29" transform="scale(-1)"/>
   <rect width="1" height="26" x="-24" y="-29" transform="scale(-1)"/>
   <rect width="1" height="26" x="-27" y="-29" transform="scale(-1)"/>
  </g>
  <rect style="opacity:0.2" width="24" height="24" x="-29" y="-28" rx="1.25" ry="1.25" transform="matrix(0,-1,-1,0,0,0)"/>
  <rect style="fill:#00b7f8" width="24" height="24" x="-28" y="-28" rx="1.25" ry="1.25" transform="matrix(0,-1,-1,0,0,0)"/>
  <path style="opacity:0.2;fill-rule:evenodd" d="M 19.108817,8 11.5,18 h 3.259486 L 12.891183,26 20.5,16 h -3.259486 z"/>
  <path style="fill:#ffffff;fill-rule:evenodd" d="M 19.108817,7 11.5,17 h 3.259486 L 12.891183,25 20.5,15 h -3.259486 z"/>
  <path style="fill:#ffffff;opacity:0.2" d="M 5.25 4 C 4.5575 4 4 4.5575 4 5.25 L 4 6.25 C 4 5.5575 4.5575 5 5.25 5 L 26.75 5 C 27.442 5 28 5.5575 28 6.25 L 28 5.25 C 28 4.5575 27.442 4 26.75 4 L 5.25 4 z"/>
 </g>
</svg>

<?xml version="1.0" encoding="UTF-8"?>
<svg width="32" height="32" version="1" xmlns="http://www.w3.org/2000/svg">
 <g id="22-22-org.rnd2.cpupower_gui" transform="translate(32,10)">
  <rect width="22" height="22" opacity=".001"/>
  <path d="m7 3v2h-1.1992c-0.4432 0-0.80078 0.35758-0.80078 0.80078v1.1992h-2v2h2v1h-2v2h2v1h-2v2h2v1.1992c0 0.4432 0.35758 0.80078 0.80078 0.80078h1.1992v2h2v-2h1v2h2v-2h1v2h2v-2h1.1992c0.4432 0 0.80078-0.35758 0.80078-0.80078v-1.1992h2v-2h-2v-1h2v-2h-2v-1h2v-2h-2v-1.1992c0-0.4432-0.35758-0.80078-0.80078-0.80078h-1.1992v-2h-2v2h-1v-2h-2v2h-1v-2h-2zm5.7266 3-1.0371 4h1.8105l-4.2266 6 1.0371-4h-1.8105l4.2266-6z" fill="#dfdfdf"/>
 </g>
 <g id="org.rnd2.cpupower_gui">
  <rect width="32" height="32" opacity=".001"/>
  <g fill="#8e8e8e">
   <rect transform="rotate(90)" x="20" y="-29" width="1" height="26"/>
   <rect transform="rotate(90)" x="23" y="-29" width="1" height="26"/>
   <rect transform="rotate(90)" x="26" y="-29" width="1" height="26"/>
   <rect transform="rotate(90)" x="11" y="-29" width="1" height="26"/>
   <rect transform="rotate(90)" x="14" y="-29" width="1" height="26"/>
   <rect transform="rotate(90)" x="17" y="-29" width="1" height="26"/>
   <rect transform="rotate(90)" x="8" y="-29" width="1" height="26"/>
   <rect transform="rotate(90)" x="5" y="-29" width="1" height="26"/>
   <rect transform="scale(-1)" x="-12" y="-29" width="1" height="26"/>
   <rect transform="scale(-1)" x="-9" y="-29" width="1" height="26"/>
   <rect transform="scale(-1)" x="-6" y="-29" width="1" height="26"/>
   <rect transform="scale(-1)" x="-21" y="-29" width="1" height="26"/>
   <rect transform="scale(-1)" x="-18" y="-29" width="1" height="26"/>
   <rect transform="scale(-1)" x="-15" y="-29" width="1" height="26"/>
   <rect transform="scale(-1)" x="-24" y="-29" width="1" height="26"/>
   <rect transform="scale(-1)" x="-27" y="-29" width="1" height="26"/>
  </g>
  <rect transform="matrix(0,-1,-1,0,0,0)" x="-29" y="-28" width="24" height="24" rx="1.25" ry="1.25" opacity=".2"/>
  <rect transform="matrix(0,-1,-1,0,0,0)" x="-28" y="-28" width="24" height="24" rx="1.25" ry="1.25" fill="#00b7f8"/>
  <path d="m19.109 8-7.6088 10h3.2595l-1.8683 8 7.6088-10h-3.2595z" fill-rule="evenodd" opacity=".2"/>
  <path d="m19.109 7-7.6088 10h3.2595l-1.8683 8 7.6088-10h-3.2595z" fill="#fff" fill-rule="evenodd"/>
  <path d="m5.25 4c-0.6925 0-1.25 0.5575-1.25 1.25v1c0-0.6925 0.5575-1.25 1.25-1.25h21.5c0.692 0 1.25 0.5575 1.25 1.25v-1c0-0.6925-0.558-1.25-1.25-1.25h-21.5z" fill="#fff" opacity=".2"/>
 </g>
</svg>
